build/img/advant-icon-03.svg

<svg width="43" height="55" viewBox="0 0 43 55" fill="none" xmlns="http://www.w3.org/2000/svg">
<g opacity="0.5">
<path d="M8.57961 15.4253L7.65062 15.762C6.21321 16.2832 5.142 17.5392 4.8554 19.0396L4.5384 20.6939C4.38145 21.5143 4.59662 22.3537 5.12868 22.997C5.66042 23.64 6.44385 24.0089 7.2783 24.0089H15.3422C16.1704 24.0089 16.9501 23.6448 17.4816 23.0099C18.0131 22.3748 18.2343 21.5427 18.0883 20.727L17.7938 19.0817C17.521 17.5567 16.4463 16.281 14.9895 15.7524L14.0042 15.395V13.9403C14.0042 13.8994 14.0002 13.8596 13.9943 13.8204C14.7133 13.088 15.125 12.0896 15.125 11.0681V8.90304C15.125 6.7893 13.4052 5.06958 11.2913 5.06958C9.1773 5.06958 7.45737 6.7893 7.45737 8.90304V11.136C7.45737 12.1861 7.89028 13.1449 8.58648 13.8412C8.58251 13.8738 8.57972 13.9067 8.57972 13.9404V15.4253H8.57961ZM16.2075 19.3656L16.502 21.0108C16.5636 21.3557 16.4703 21.7073 16.2457 21.9756C16.0213 22.2438 15.6919 22.3976 15.342 22.3976H7.27808C6.92574 22.3976 6.59488 22.2418 6.37026 21.9702C6.14543 21.6983 6.05455 21.3434 6.12083 20.9968L6.43794 19.3424C6.61862 18.3967 7.29377 17.6053 8.19976 17.2768L8.80777 17.0564C8.82324 17.0723 8.83871 17.088 8.85547 17.1028C9.54984 17.7087 10.4206 18.0117 11.2918 18.0116C12.162 18.0116 13.0325 17.7091 13.7265 17.1042C13.7308 17.1004 13.7362 17.0957 13.7403 17.0919C13.7605 17.0737 13.7794 17.0543 13.7974 17.0342L14.4398 17.2672C15.3581 17.6005 16.0357 18.4045 16.2075 19.3656ZM9.06849 8.90304C9.06849 7.67778 10.0655 6.68091 11.291 6.68091C12.3254 6.68091 13.1943 7.39204 13.4411 8.35024C13.3378 8.40073 13.2315 8.44843 13.1226 8.49215C12.1317 8.88875 11.3315 8.83633 11.1027 8.67584C10.7387 8.42028 10.2361 8.50858 9.9806 8.87296C9.72516 9.23733 9.81335 9.73964 10.1777 9.99509C10.5712 10.2711 11.1053 10.409 11.7147 10.409C12.2685 10.409 12.8846 10.2939 13.5136 10.0663V11.0684C13.5136 11.6843 13.2589 12.2874 12.8148 12.723C12.6096 12.9242 12.3753 13.0796 12.1232 13.1871C12.1041 13.1943 12.0854 13.2022 12.0671 13.2108C11.808 13.3127 11.5312 13.3643 11.2473 13.3581C10.0459 13.3349 9.06859 12.3382 9.06859 11.1361V8.90304H9.06849ZM11.2162 14.9692C11.2408 14.9696 11.265 14.9698 11.2895 14.9698C11.6679 14.9698 12.0386 14.9129 12.3928 14.8036V16.0921C11.7212 16.5059 10.8623 16.5058 10.1909 16.092V14.806C10.5171 14.9049 10.8607 14.9623 11.2162 14.9692Z" fill="white"/>
<path d="M30.512 36.9963C30.512 36.5513 30.1514 36.1907 29.7063 36.1907H8.27942C7.83437 36.1907 7.47375 36.5513 7.47375 36.9963C7.47375 37.4414 7.83437 37.802 8.27942 37.802H29.7064C30.1514 37.802 30.512 37.4414 30.512 36.9963Z" fill="white"/>
<path d="M8.27942 40.535C7.83437 40.535 7.47375 40.8956 7.47375 41.3407C7.47375 41.7857 7.83437 42.1464 8.27942 42.1464H28.8988C29.3439 42.1464 29.7045 41.7857 29.7045 41.3407C29.7045 40.8956 29.3439 40.535 28.8988 40.535H8.27942Z" fill="white"/>
<path d="M32.4103 28.3082C32.4103 27.8631 32.0497 27.5025 31.6047 27.5025H8.27942C7.83437 27.5025 7.47375 27.8631 7.47375 28.3082C7.47375 28.7532 7.83437 29.1138 8.27942 29.1138H31.6048C32.0497 29.1138 32.4103 28.7532 32.4103 28.3082Z" fill="white"/>
<path d="M31.3647 32.6523C31.3647 32.2073 31.0041 31.8467 30.559 31.8467H8.27942C7.83437 31.8467 7.47375 32.2073 7.47375 32.6523C7.47375 33.0974 7.83437 33.458 8.27942 33.458H30.559C31.004 33.458 31.3647 33.0973 31.3647 32.6523Z" fill="white"/>
<path d="M5.3044 37.8052C5.75102 37.8052 6.11307 37.4432 6.11307 36.9965C6.11307 36.5499 5.75102 36.1879 5.3044 36.1879C4.85778 36.1879 4.49573 36.5499 4.49573 36.9965C4.49573 37.4432 4.85778 37.8052 5.3044 37.8052Z" fill="white"/>
<path d="M5.3044 29.1169C5.75102 29.1169 6.11307 28.7548 6.11307 28.3082C6.11307 27.8616 5.75102 27.4995 5.3044 27.4995C4.85778 27.4995 4.49573 27.8616 4.49573 28.3082C4.49573 28.7548 4.85778 29.1169 5.3044 29.1169Z" fill="white"/>
<path d="M5.3044 33.4608C5.75102 33.4608 6.11307 33.0988 6.11307 32.6522C6.11307 32.2056 5.75102 31.8435 5.3044 31.8435C4.85778 31.8435 4.49573 32.2056 4.49573 32.6522C4.49573 33.0988 4.85778 33.4608 5.3044 33.4608Z" fill="white"/>
<path d="M5.3044 42.1493C5.75102 42.1493 6.11307 41.7873 6.11307 41.3407C6.11307 40.894 5.75102 40.532 5.3044 40.532C4.85778 40.532 4.49573 40.894 4.49573 41.3407C4.49573 41.7873 4.85778 42.1493 5.3044 42.1493Z" fill="white"/>
<path d="M42.2905 17.9431C42.0232 17.5362 41.6686 17.2082 41.2554 16.9776V13.686C41.2554 13.0228 40.9859 12.3737 40.5157 11.9054L29.2963 0.732725C29.0979 0.534531 28.8694 0.374688 28.6183 0.253408C28.6073 0.247393 28.596 0.242021 28.5847 0.236436C28.5758 0.232246 28.5675 0.227197 28.5584 0.223115C28.555 0.221611 28.5516 0.220322 28.5481 0.218711C28.5433 0.216563 28.5383 0.214629 28.5335 0.212588C28.2123 0.0719726 27.8723 0 27.5222 0H3.8456C1.7252 0 0 1.72498 0 3.84517V41.0996C0 41.5447 0.360615 41.9053 0.805664 41.9053C1.25071 41.9053 1.61133 41.5447 1.61133 41.0996V3.84517C1.61133 2.61336 2.61357 1.61133 3.8456 1.61133H27.4221V8.52693C27.4221 11.4246 29.7799 13.7821 32.6781 13.7821H35.3498C35.7948 13.7821 36.1554 13.4215 36.1554 12.9765C36.1554 12.5314 35.7948 12.1708 35.3498 12.1708H32.6781C30.6684 12.1708 29.0334 10.5362 29.0334 8.52693V2.74506L39.3786 13.0469C39.5474 13.215 39.6442 13.4479 39.6442 13.686V16.6028C38.3237 16.6718 37.1612 17.6208 36.8807 18.9745L31.9024 42.9998C31.8814 43.1022 31.8803 43.2125 31.9 43.315L32.6731 47.3723C32.5723 47.4175 32.474 47.4637 32.3789 47.5087C31.0793 48.1258 29.6006 47.749 28.3223 48.3802C27.9418 48.7545 27.2666 48.8253 26.8169 48.5376C26.3672 48.2503 26.1481 47.6079 26.3284 47.1057C26.4596 46.7399 26.3109 46.3325 25.975 46.1371C25.639 45.9417 25.2116 46.014 24.9585 46.309C23.9697 47.4617 22.34 47.8678 20.4685 48.2449C20.0322 48.3328 19.7499 48.7576 19.8378 49.1939C19.9257 49.6301 20.3514 49.9122 20.7868 49.8245C21.9988 49.5802 23.5354 49.2705 24.8339 48.4844C25.0428 49.055 25.4269 49.5613 25.9489 49.8951C26.4013 50.1844 26.9279 50.3252 27.4546 50.3252C28.1741 50.3252 28.8938 50.0624 29.424 49.5563C30.5743 49.566 32.021 49.4619 33.0694 48.9645C33.3319 48.84 33.5665 48.7294 33.7817 48.6797C33.8698 48.6971 33.958 48.7063 34.0454 48.7063C34.4861 48.7063 34.9037 48.4903 35.1586 48.1153L37.6169 44.4984C37.6746 44.4148 37.7184 44.3094 37.7395 44.209L39.644 35.0174V51.1548C39.644 52.3866 38.6418 53.3887 37.4098 53.3887H3.8456C2.61357 53.3887 1.61133 52.3866 1.61133 51.1548V44.5932C1.61133 44.1481 1.25071 43.7875 0.805664 43.7875C0.360615 43.7875 0 44.1481 0 44.5932V51.1548C0 53.275 1.7252 55 3.8456 55H37.4098C39.5302 55 41.2554 53.275 41.2554 51.1548V27.2412L42.7177 20.1839C42.8793 19.4044 42.7276 18.6086 42.2905 17.9431ZM40.0694 18.2371C40.0719 18.2377 40.0745 18.2382 40.0771 18.2387C40.1212 18.2479 40.1646 18.2591 40.2072 18.2724C40.2087 18.2729 40.2102 18.2734 40.2117 18.2739C40.5119 18.3681 40.7684 18.5612 40.9435 18.8277C41.1443 19.1334 41.214 19.4989 41.1398 19.857L40.8762 21.1291L38.1946 20.5737L38.4582 19.3013C38.6111 18.5648 39.3321 18.0889 40.0694 18.2371ZM37.8679 22.1515L40.5494 22.7069L40.1925 24.429L37.5112 23.8735L37.8679 22.1515ZM37.1841 25.4513L39.8657 26.0067L39.6608 26.9952C39.6606 26.9963 39.6604 26.9973 39.6602 26.9983L36.325 43.0933L33.6436 42.5378L37.1841 25.4513ZM34.1824 46.6851L33.7082 44.1968L35.6064 44.59L34.1824 46.6851Z" fill="white"/>
</g>
</svg>

<svg width="43" height="55" fill="none" xmlns="http://www.w3.org/2000/svg"><g opacity=".5" fill="#fff"><path d="M8.58 15.425l-.93.337a4.377 4.377 0 00-2.795 3.278l-.317 1.654c-.157.82.059 1.66.59 2.303a2.78 2.78 0 002.15 1.012h8.064c.828 0 1.608-.364 2.14-1a2.784 2.784 0 00.606-2.282l-.294-1.645a4.372 4.372 0 00-2.805-3.33l-.985-.357V13.94a.81.81 0 00-.01-.12 3.954 3.954 0 001.131-2.752V8.903a3.838 3.838 0 00-3.834-3.833 3.838 3.838 0 00-3.834 3.833v2.233a3.82 3.82 0 001.13 2.705.817.817 0 00-.007.1v1.484zm7.627 3.94l.295 1.646a1.177 1.177 0 01-1.16 1.387H7.278a1.176 1.176 0 01-1.157-1.4l.317-1.656A2.758 2.758 0 018.2 17.277l.608-.22c.015.015.03.031.047.046a3.697 3.697 0 002.437.909c.87 0 1.74-.303 2.434-.908l.014-.012a.758.758 0 00.057-.058l.643.233a2.756 2.756 0 011.768 2.099zM9.069 8.904c0-1.225.998-2.222 2.223-2.222 1.034 0 1.903.711 2.15 1.67a4.79 4.79 0 01-.318.141c-.991.397-1.791.344-2.02.184a.805.805 0 10-.925 1.32c.393.275.927.413 1.537.413.553 0 1.17-.115 1.799-.343v1.002a2.33 2.33 0 01-.7 1.655 2.244 2.244 0 01-.747.488 2.11 2.11 0 01-.82.147 2.233 2.233 0 01-2.178-2.222V8.903zm2.148 6.066h.074c.378 0 .749-.056 1.103-.165v1.288a2.108 2.108 0 01-2.202 0v-1.286c.326.099.67.156 1.025.163zm19.295 22.026a.806.806 0 00-.806-.805H8.28a.806.806 0 100 1.611h21.427c.445 0 .806-.36.806-.806zM8.28 40.535a.806.806 0 100 1.611h20.619a.806.806 0 100-1.611H8.279zm24.13-12.227a.806.806 0 00-.805-.805H8.279a.806.806 0 100 1.61h23.326c.445 0 .805-.36.805-.805zm-1.045 4.344a.806.806 0 00-.806-.805H8.279a.806.806 0 100 1.611h22.28c.445 0 .806-.36.806-.806zM5.304 37.805a.809.809 0 100-1.617.809.809 0 000 1.617zm0-8.688a.809.809 0 100-1.618.809.809 0 000 1.618zm0 4.343a.809.809 0 100-1.616.809.809 0 000 1.617zm0 8.69a.809.809 0 100-1.618.809.809 0 000 1.617z"/><path d="M42.29 17.943a2.966 2.966 0 00-1.035-.965v-3.292a2.53 2.53 0 00-.74-1.78L29.297.732a2.483 2.483 0 00-.678-.48l-.033-.017-.027-.013-.01-.004-.014-.006A2.507 2.507 0 0027.521 0H3.846A3.85 3.85 0 000 3.845V41.1a.806.806 0 101.611 0V3.845a2.237 2.237 0 012.235-2.234h23.576v6.916a5.262 5.262 0 005.256 5.255h2.672a.805.805 0 100-1.611h-2.672a3.648 3.648 0 01-3.645-3.644V2.745L39.38 13.047a.908.908 0 01.265.639v2.917a2.985 2.985 0 00-2.763 2.371L31.902 43a.821.821 0 00-.002.315l.773 4.057c-.1.045-.199.092-.294.137-1.3.617-2.778.24-4.057.871-.38.374-1.055.445-1.505.158-.45-.288-.669-.93-.489-1.432a.806.806 0 00-1.37-.797c-.988 1.153-2.618 1.559-4.49 1.936a.806.806 0 10.319 1.58c1.212-.245 2.748-.555 4.047-1.34a2.82 2.82 0 001.115 1.41c.452.29.979.43 1.506.43.72 0 1.439-.263 1.969-.769 1.15.01 2.597-.094 3.645-.591.263-.125.497-.236.713-.285a1.344 1.344 0 001.377-.564l2.458-3.618a.826.826 0 00.123-.289l1.904-9.192v16.138a2.237 2.237 0 01-2.234 2.234H3.846a2.237 2.237 0 01-2.235-2.234v-6.562a.806.806 0 10-1.611 0v6.562A3.85 3.85 0 003.846 55H37.41a3.85 3.85 0 003.845-3.845V27.24l1.463-7.057a2.96 2.96 0 00-.428-2.24zm-2.22.294l.007.002a1.386 1.386 0 01.135.035c.3.094.556.287.731.554.201.305.271.67.197 1.029l-.264 1.272-2.681-.555.263-1.273a1.371 1.371 0 011.611-1.064zm-2.202 3.915l2.681.555-.356 1.722-2.682-.555.357-1.723zm-.684 3.3l2.682.555-.205.988v.003l-3.336 16.095-2.681-.555 3.54-17.087zm-3.002 21.233l-.474-2.488 1.898.393-1.424 2.095z"/></g></svg>
